src/cmd/sc_extrusiontoggle.svg

<svg viewBox="0 0 16 16" xmlns="http://www.w3.org/2000/svg"><path d="m14 2-4 4h-8v8h8l4-4z" fill="#b3b3b3"/><path d="m5.3125 2c.01-.002-3.3125 3.3125-3.3125 3.3125v.6875 7.3125.6875h.6875 7.3125.6875s3.32345-3.28265 3.3125-3.28125v-.71875-8h-8zm.5 1h6.46875c-.83334.84433-1.62719 1.66118-1.96875 2h-3.3125-1-1-1.3125l1.3125-1.28125c-.0429568-.0031667.8125-.71875.8125-.71875zm7.1875.71875v6.59375l-.71875.6875c-.54463.55182-.73557.762-1.28125 1.3125v-1.3125-1-1-3-.3125zm-10 2.28125h2 1 4v4 1 2h-3v-3h1.5l-2-3-2 3h1.5v3h-2.3125-.6875v-.6875z" fill="#232629"/></svg>

<?xml version="1.0" encoding="UTF-8" standalone="no"?>
<svg
   xmlns:dc="http://purl.org/dc/elements/1.1/"
   xmlns:cc="http://creativecommons.org/ns#"
   xmlns:rdf="http://www.w3.org/1999/02/22-rdf-syntax-ns#"
   xmlns:svg="http://www.w3.org/2000/svg"
   xmlns="http://www.w3.org/2000/svg"
   xmlns:sodipodi="http://sodipodi.sourceforge.net/DTD/sodipodi-0.dtd"
   xmlns:inkscape="http://www.inkscape.org/namespaces/inkscape"
   viewBox="0 0 16 16"
   version="1.1"
   id="svg6"
   sodipodi:docname="sc_extrusiontoggle.svg"
   inkscape:version="0.92.5 (2060ec1f9f, 2020-04-08)"
   inkscape:export-filename="/home/jupiter007/Libreoffice yaru theme fullcolor/build/cmd/sc_extrusiontoggle.png"
   inkscape:export-xdpi="95"
   inkscape:export-ydpi="95">
  <metadata
     id="metadata12">
    <rdf:RDF>
      <cc:Work
         rdf:about="">
        <dc:format>image/svg+xml</dc:format>
        <dc:type
           rdf:resource="http://purl.org/dc/dcmitype/StillImage" />
      </cc:Work>
    </rdf:RDF>
  </metadata>
  <defs
     id="defs10" />
  <sodipodi:namedview
     pagecolor="#ffffff"
     bordercolor="#666666"
     borderopacity="1"
     objecttolerance="10"
     gridtolerance="10"
     guidetolerance="10"
     inkscape:pageopacity="0"
     inkscape:pageshadow="2"
     inkscape:window-width="1920"
     inkscape:window-height="1011"
     id="namedview8"
     showgrid="true"
     inkscape:zoom="41.7193"
     inkscape:cx="3.6208789"
     inkscape:cy="5.7474307"
     inkscape:window-x="1920"
     inkscape:window-y="32"
     inkscape:window-maximized="1"
     inkscape:current-layer="svg6">
    <inkscape:grid
       type="xygrid"
       id="grid822" />
  </sodipodi:namedview>
  <path
     d="m14 2-4 4h-8v8h8l4-4z"
     fill="#b3b3b3"
     id="path2" />
  <path
     d="M 5.3125,2 C 5.3225,1.998 2,5.3125 2,5.3125 V 6 13.3125 14 H 2.6875 10 10.6875 c 0,0 3.32345,-3.28265 3.3125,-3.28125 V 10 2 H 6 Z m 0.5,1 h 6.46875 C 11.44791,3.84433 10.65406,4.66118 10.3125,5 H 7 6 5 3.6875 L 5,3.71875 C 4.9570432,3.7155833 5.8125,3 5.8125,3 Z M 13,3.71875 V 10.3125 L 12.28125,11 C 11.73662,11.55182 11.54568,11.762 11,12.3125 V 11 10 9 6 5.6875 Z M 3,6 h 2 1 4 v 4 1 2 H 7 6 3.6875 3 v -0.6875 z"
     id="path4"
     style="fill:#1463a5;fill-opacity:1"
     inkscape:connector-curvature="0"
     sodipodi:nodetypes="ccccccccccccccccccccccccccccccccccccccccccccc" />
  <path
     sodipodi:nodetypes="cccccccc"
     inkscape:connector-curvature="0"
     d="m 7,13 v -3 h 1.5 l -2,-3 -2,3 H 6 v 3 z"
     id="path826"
     style="fill:#000000;fill-opacity:1;stroke:#000000;opacity:0.6;stroke-width:2;stroke-miterlimit:4;stroke-dasharray:none;stroke-linejoin:round" />
  <path
     style="fill:#ffffff;fill-opacity:1"
     id="path824"
     d="m 7,13 v -3 h 1.5 l -2,-3 -2,3 H 6 v 3 z"
     inkscape:connector-curvature="0"
     sodipodi:nodetypes="cccccccc" />
  <path
     style="fill:#ffffff;stroke:none;stroke-width:1px;stroke-linecap:butt;stroke-linejoin:miter;stroke-opacity:1;fill-opacity:1"
     d="m 3.6875,5 2.125,-2 h 6.46875 L 10.3125,5 Z"
     id="path828"
     inkscape:connector-curvature="0" />
</svg>
